image/values/icon-8.svg

<svg xmlns="http://www.w3.org/2000/svg" width="48" height="48" fill="none"><path fill="#C63031" d="M14 45.5H6c-.82 0-1.5-.68-1.5-1.5V20c0-3.44 1.76-5.5 4.7-5.5h1.6c2.94 0 4.7 2.06 4.7 5.5v24c0 .82-.68 1.5-1.5 1.5Zm-6.5-3h5V20c0-2.5-1.1-2.5-1.7-2.5H9.2c-.6 0-1.7 0-1.7 2.5v22.5ZM42 45.5h-8c-.82 0-1.5-.68-1.5-1.5V30c0-3.44 1.76-5.5 4.7-5.5h1.6c2.94 0 4.7 2.06 4.7 5.5v14c0 .82-.68 1.5-1.5 1.5Zm-6.5-3h5V30c0-2.5-1.1-2.5-1.7-2.5h-1.6c-.6 0-1.7 0-1.7 2.5v12.5Z"/><path fill="#2E2E2E" d="M44 45.5H4c-.82 0-1.5-.68-1.5-1.5s.68-1.5 1.5-1.5h40c.82 0 1.5.68 1.5 1.5s-.68 1.5-1.5 1.5Z"/><path fill="#2E2E2E" d="M28.5 45.5h-9c-.82 0-1.5-.68-1.5-1.5V8c0-3.44 1.9-5.5 5.1-5.5h1.8C28.1 2.5 30 4.56 30 8v36c0 .82-.68 1.5-1.5 1.5Zm-7.5-3h6V8c0-2.3-1.08-2.5-2.1-2.5h-1.8c-1.02 0-2.1.2-2.1 2.5v34.5Z"/></svg>

<svg width="48" height="48" viewBox="0 0 48 48" fill="none" xmlns="http://www.w3.org/2000/svg">
<path d="M14 45.5H6C5.18 45.5 4.5 44.82 4.5 44V20C4.5 16.56 6.26 14.5 9.2 14.5H10.8C13.74 14.5 15.5 16.56 15.5 20V44C15.5 44.82 14.82 45.5 14 45.5ZM7.5 42.5H12.5V20C12.5 17.5 11.4 17.5 10.8 17.5H9.2C8.6 17.5 7.5 17.5 7.5 20V42.5Z" fill="#C63031"/>
<path d="M42 45.5H34C33.18 45.5 32.5 44.82 32.5 44V30C32.5 26.56 34.26 24.5 37.2 24.5H38.8C41.74 24.5 43.5 26.56 43.5 30V44C43.5 44.82 42.82 45.5 42 45.5ZM35.5 42.5H40.5V30C40.5 27.5 39.4 27.5 38.8 27.5H37.2C36.6 27.5 35.5 27.5 35.5 30V42.5Z" fill="#C63031"/>
<path d="M44 45.5H4C3.18 45.5 2.5 44.82 2.5 44C2.5 43.18 3.18 42.5 4 42.5H44C44.82 42.5 45.5 43.18 45.5 44C45.5 44.82 44.82 45.5 44 45.5Z" fill="#2E2E2E"/>
<path d="M28.5 45.5H19.5C18.68 45.5 18 44.82 18 44V8C18 4.56 19.9 2.5 23.1 2.5H24.9C28.1 2.5 30 4.56 30 8V44C30 44.82 29.32 45.5 28.5 45.5ZM21 42.5H27V8C27 5.7 25.92 5.5 24.9 5.5H23.1C22.08 5.5 21 5.7 21 8V42.5Z" fill="#2E2E2E"/>
</svg>
